suite-common/icons/assets/icons/blocked.svg

<svg xmlns="http://www.w3.org/2000/svg" viewBox="0 0 16 16">
  <path fill-rule="evenodd" d="M7.347 1.039c-.909.068-1.964.399-2.8.879C2.61 3.03 1.349 4.916 1.051 7.147a8 8 0 0 0 0 1.693 7.15 7.15 0 0 0 1.355 3.36c.268.361 1.004 1.103 1.354 1.364a7 7 0 0 0 3.2 1.356c.576.09 1.457.096 2.023.013a7.1 7.1 0 0 0 3.31-1.409 9.5 9.5 0 0 0 1.1-1.071 6.96 6.96 0 0 0 1.591-4.072 6.98 6.98 0 0 0-1.513-4.741c-.208-.265-.911-.96-1.169-1.155-1.003-.757-2.14-1.241-3.302-1.406-.33-.047-1.26-.069-1.653-.04m.946 1.495c.602.03.924.087 1.427.252 1.85.607 3.238 2.158 3.659 4.089.072.327.074.365.074 1.125 0 .723-.005.81-.062 1.076a5.8 5.8 0 0 1-.592 1.594c-.219.377-.378.61-.417.61-.052 0-7.662-7.604-7.662-7.656 0-.057.457-.352.853-.549a5.6 5.6 0 0 1 1.747-.527c.338-.046.351-.046.973-.014M7.56 8.611c3.286 3.288 3.754 3.766 3.72 3.799-.102.098-.527.356-.84.51a5.43 5.43 0 0 1-4.17.291c-1.843-.604-3.211-2.131-3.648-4.071-.072-.318-.074-.349-.074-1.14s.002-.822.074-1.14a5.8 5.8 0 0 1 .79-1.882l.189-.289.099.081c.055.044 1.792 1.773 3.86 3.841"/>
</svg>

<svg xmlns="http://www.w3.org/2000/svg" viewBox="0 0 16 16"><path d="M7.347 1.039 C 6.438 1.107,5.383 1.438,4.547 1.918 C 2.610 3.030,1.349 4.916,1.051 7.147 C 0.992 7.587,0.992 8.377,1.051 8.840 C 1.206 10.057,1.671 11.209,2.406 12.200 C 2.674 12.561,3.410 13.303,3.760 13.564 C 4.744 14.298,5.770 14.733,6.960 14.920 C 7.536 15.010,8.417 15.016,8.983 14.933 C 10.181 14.758,11.343 14.263,12.293 13.524 C 12.591 13.292,13.126 12.771,13.393 12.453 C 14.337 11.327,14.907 9.869,14.984 8.381 C 15.073 6.650,14.553 5.019,13.471 3.640 C 13.263 3.375,12.560 2.680,12.302 2.485 C 11.299 1.728,10.162 1.244,9.000 1.079 C 8.670 1.032,7.740 1.010,7.347 1.039 M8.293 2.534 C 8.895 2.564,9.217 2.621,9.720 2.786 C 11.570 3.393,12.958 4.944,13.379 6.875 C 13.451 7.202,13.453 7.240,13.453 8.000 C 13.453 8.723,13.448 8.810,13.391 9.076 C 13.270 9.641,13.045 10.245,12.799 10.670 C 12.580 11.047,12.421 11.280,12.382 11.280 C 12.330 11.280,4.720 3.676,4.720 3.624 C 4.720 3.567,5.177 3.272,5.573 3.075 C 6.100 2.812,6.690 2.634,7.320 2.548 C 7.658 2.502,7.671 2.502,8.293 2.534 M7.560 8.611 C 10.846 11.899,11.314 12.377,11.280 12.410 C 11.178 12.508,10.753 12.766,10.440 12.920 C 9.115 13.571,7.675 13.672,6.270 13.211 C 4.427 12.607,3.059 11.080,2.622 9.140 C 2.550 8.822,2.548 8.791,2.548 8.000 C 2.548 7.209,2.550 7.178,2.622 6.860 C 2.772 6.192,3.047 5.538,3.412 4.978 L 3.601 4.689 3.700 4.770 C 3.755 4.814,5.492 6.543,7.560 8.611 " stroke="none" fill-rule="evenodd" fill="black"></path></svg>
